devices.svg

<svg fill="currentColor" viewBox="0 0 24 24"><path d="M3 6h18V4H3c-1.1 0-2 .9-2 2v12c0 1.1.9 2 2 2h4v-2H3zm10 6H9v1.78c-.61.55-1 1.33-1 2.22s.39 1.67 1 2.22V20h4v-1.78c.61-.55 1-1.34 1-2.22s-.39-1.67-1-2.22zm-2 5.5c-.83 0-1.5-.67-1.5-1.5s.67-1.5 1.5-1.5 1.5.67 1.5 1.5-.67 1.5-1.5 1.5M22 8h-6c-.5 0-1 .5-1 1v10c0 .5.5 1 1 1h6c.5 0 1-.5 1-1V9c0-.5-.5-1-1-1m-1 10h-4v-8h4z"/></svg>

<svg  viewBox="0 0 24 24" fill="currentColor"><path  d="M3 6H21V4H3C1.9 4 1 4.9 1 6V18C1 19.1 1.9 20 3 20H7V18H3V6M13 12H9V13.78C8.39 14.33 8 15.11 8 16C8 16.89 8.39 17.67 9 18.22V20H13V18.22C13.61 17.67 14 16.88 14 16S13.61 14.33 13 13.78V12M11 17.5C10.17 17.5 9.5 16.83 9.5 16S10.17 14.5 11 14.5 12.5 15.17 12.5 16 11.83 17.5 11 17.5M22 8H16C15.5 8 15 8.5 15 9V19C15 19.5 15.5 20 16 20H22C22.5 20 23 19.5 23 19V9C23 8.5 22.5 8 22 8M21 18H17V10H21V18Z"/></svg>
